X:1
T:My Love Is Far Away -- Reel
R:reel
B:Ryan's Mammoth Collection
N: 47
Z: Contributed by Ray Davies,  ray:davies99.freeserve.co.uk
M:C|
L:1/8
K:Ador
vAB|\
cE~E2 cded | cEEF G2G2 | cE~E2 cded | cABG A2AB |
cE~E2 cded | cEEF G2AB | cEEG cded | cABG A2 :|
|:cd|\
eaag efed | cdef g2gf | eaag efed | cABG A2cd |
eaag efed | cdef g2fg | afge fded | ^cABG A2 :|
